!!!!SEGMENT: pl-kk--kk-i-2--016_jacotin--magnificat-tertii-toni.krn
!!!cenid: 16xx:1629
!!!COM: Jacotin
!!!COM-rismID: pe30016657
!!!CDT: ~1473-1555
!!!CNT: French-Flemish
!!!OTL: [Magnificat] Tertii Toni
!!!PDT:
!!!AGN: Sacred
!!!YEC: Copyright 2022 Narodowy Instytut Fryderyka Chopina (https://polishscores.org)
!!!YEM: License CC-BY-4.0 (https://creativecommons.org/licenses/by/4.0)
!!!SMS-siglum: PL-Kk
!!!SMS-shelfmark: Kk.I.2
!!!SMS-shelfwork: 016 W
!!!NIFC-rismSourceID: 300258016
!!!NIFC-rismChildID: 300258032
!!!NIFC-islandoraID: pl-kk:750
!!!URL-pdf-islandora: https://repozytorium.nifc.pl/islandora/object/pl-kk%3A750/datastream/PDF/view
!!!URL-scan: https://polish.musicsources.pl/pl/lokalizacje/galeria/rekopisy/5828 @EN{Scan on Polish Music Sources Website} @PL{Skany w portalu Dziedzictwo Muzyki Polskiej w otwartym dostępie}
!!!IIIF: https://repozytorium.nifc.pl/islandora/object/pl-kk%3A750/datastream/IIIF/view
!!!ONB-nifc: skany: C: 0039-0040; A: 0140-0141; T: 0243-0245; B: 0342-0343;
!!!AIN: 1 alto 1 bass 1 soprn 1 tenor
!!!key: a
**kern	**text	**kern	**text	**kern	**text	**kern	**text
*part4	*	*part3	*	*part2	*	*part1	*
*staff4	*	*staff3	*	*staff2	*	*staff1	*
*I"BASVS	*	*I"TENOR	*	*I"ALTVS	*	*I"DISCANTVS	*
*I'B	*	*I'T	*	*I'A	*	*I'S	*
*ICvox	*	*ICvox	*	*ICvox	*	*ICvox	*
*Ibass	*	*Itenor	*	*Ialto	*	*Isoprn	*
*clefF3	*	*clefC4	*	*clefC3	*	*clefC1	*
*k[]	*	*k[]	*	*k[]	*	*k[]	*
*a:	*	*a:	*	*a:	*	*a:	*
*M2/1	*	*M2/1	*	*M2/1	*	*M2/1	*
*met(C|)	*	*met(C|)	*	*met(C|)	*	*met(C|)	*
=1	=1	=1	=1	=1	=1	=1	=1
*xywh-#342:7665,676,6435,1032	*	*xywh-#243:7819,3792,6395,1435	*	*xywh-#140:1518,3715,6177,1313	*	*xywh-#39:1318,545,6386,1059	*
1G	Et	0G	Et	0r	.	0r	.
2E/	e-	.	.	.	.	.	.
2C/	-xul-	.	.	.	.	.	.
=2	=2	=2	=2	=2	=2	=2	=2
1.F	-ta-	1A	e-	0r	.	0r	.
.	.	1.c	-xul-	.	.	.	.
4E/	.	.	.	.	.	.	.
4D/	-vit	.	.	.	.	.	.
=3	=3	=3	=3	=3	=3	=3	=3
2E/	.	.	.	0r	.	0r	.
2.F/	.	2c\	-ta-	.	.	.	.
.	.	2.c\	-vit	.	.	.	.
4G/	.	.	.	.	.	.	.
4A/	.	.	.	.	.	.	.
4F/	.	4d\	.	.	.	.	.
=4	=4	=4	=4	=4	=4	=4	=4
1G	.	2e\	.	0r	.	0r	.
.	.	1d	.	.	.	.	.
2F/	.	.	.	.	.	.	.
2E/	.	1c	.	.	.	.	.
=5	=5	=5	=5	=5	=5	=5	=5
1D	.	.	.	1r	.	1r	.
.	.	2B/	.	.	.	.	.
0C	.	0c	.	1g	Et	0g	Et
=6	=6	=6	=6	=6	=6	=6	=6
.	.	.	.	2e\	e-	.	.
.	.	.	.	2c/	-xul-	.	.
1r	.	1r	.	1.f	-ta-	1a	e-
=7	=7	=7	=7	=7	=7	=7	=7
0r	.	0r	.	.	.	1.cc	-xul-
.	.	.	.	4e\	-vit	.	.
.	.	.	.	4d\	.	.	.
.	.	.	.	2e\	.	.	.
.	.	.	.	2f\	.	2cc\	-ta-
=8	=8	=8	=8	=8	=8	=8	=8
0r	.	2r	.	4c\	.	2.cc\	-vit
.	.	.	.	4d\	.	.	.
.	.	1c	ſpi-	4e\	.	.	.
.	.	.	.	4f\	.	4dd\	.
.	.	.	.	2g\	.	2ee\	.
.	.	2B/	-ri-	2G/	.	1dd	.
=9	=9	=9	=9	=9	=9	=9	=9
*	*	*	*	*lig	*	*	*
0r	.	1c	-tus	1A	.	.	.
.	.	.	.	.	.	1cc	.
.	.	1d	me-	1G	.	.	.
.	.	.	.	.	.	2b\	.
*	*	*	*	*Xlig	*	*	*
=10	=10	=10	=10	=10	=10	=10	=10
*	*	*	*	*	*	*lig	*
1r	.	2.c/	-us	2r	.	1cc	.
.	.	.	.	2.c/	ſpi-	.	.
.	.	4d/	.	.	.	.	.
2r	.	1e	.	.	.	1g	.
.	.	.	.	4B/	.	.	.
1C	ſpi-	.	.	4c/	-ri-	.	.
.	.	.	.	4d/	-tus	.	.
*	*	*	*	*	*	*Xlig	*
=11	=11	=11	=11	=11	=11	=11	=11
.	.	0r	.	2e\	.	1r	.
2BB/	-ri-	.	.	1d	me-	.	.
1C	-tus	.	.	.	.	2r	.
.	.	.	.	1c	.	2e/	ſpi-
=12	=12	=12	=12	=12	=12	=12	=12
1D	.	0r	.	.	.	2f/	-ri-
.	.	.	.	2B/	-us	2d/	-tus
2.C/	me-	.	.	2c/	.	2.g/	.
.	.	.	.	1e	.	.	.
4D/	-us	.	.	.	.	4f/	me-
=13	=13	=13	=13	=13	=13	=13	=13
4E/	.	1r	.	.	.	4g/	.
4C/	.	.	.	.	.	4e/	.
1F	.	.	.	2c/	.	1a	-us
.	.	2r	.	2d/	.	.	.
*custos:D	*	*	*	*custos:d	*	*	*
2E/	.	1c	ſp(i)-	2e/	.	2g/	.
!LO:LB:g=original	!	!	!	!	!	!	!
!	!	!	!	!	!LO:LB:g=original	!	!
=14	=14	=14	=14	=14	=14	=14	=14
*xywh-#342:7728,1500,6109,990	*	*	*	*xywh-#140:7707,590,6564,1037	*	*	*
2F/	.	.	.	1d	.	2r	.
2G/	.	2B/	-(ri)-	.	.	1g	ſp(i)-
*lig	*	*	*	*	*	*	*
1A	.	1c	-(t)us	2c/	.	.	.
.	.	.	.	2A/	.	2f/	-(ri)-
=15	=15	=15	=15	=15	=15	=15	=15
*	*	*custos:c	*	*	*	*custos:a	*
1G	.	1d	me-	1B	.	1g	-(t)us
!	!	!LO:LB:g=original	!	!	!	!	!
!	!	!	!	!	!	!	!LO:LB:g=original
*	*	*	*	*	*	*	*
*Xlig	*	*	*	*	*	*	*
*	*	*xywh-#244:1660,629,6026,974	*	*	*	*	*
!LO:TX:t=P:pion:problem	!	!	!	!LO:TX:t=P:pion:problem	!	!LO:TX:t=P:pion:problem	!
1ryy	.	2.c\	-us	1ryy	.	1ryy	.
.	.	4d\	.	.	.	.	.
=16	=16	=16	=16	=16	=16	=16	=16
0ryy	.	1e	.	0ryy	.	0ryy	.
.	.	1r	.	.	.	.	.
=17	=17	=17	=17	=17	=17	=17	=17
0ryy	.	0r	.	0ryy	.	0ryy	.
=18	=18	=18	=18	=18	=18	=18	=18
0ryy	.	0r	.	0ryy	.	0ryy	.
=19	=19	=19	=19	=19	=19	=19	=19
0ryy	.	0r	.	0ryy	.	0ryy	.
=20	=20	=20	=20	=20	=20	=20	=20
0ryy	.	0r	.	0ryy	.	0ryy	.
=21	=21	=21	=21	=21	=21	=21	=21
0ryy	.	2r	.	0ryy	.	0ryy	.
.	.	1c	ſp(i)-	.	.	.	.
.	.	2B\	-(ri)-	.	.	.	.
=22	=22	=22	=22	=22	=22	=22	=22
0ryy	.	1c	-(t)us	0ryy	.	0ryy	.
.	.	1d	.	.	.	.	.
=23	=23	=23	=23	=23	=23	=23	=23
*	*	*	*	*	*	*xywh-#39:1300,1437,6260,933	*
0r	.	2.c\	meus	2.A/	.	1a	me-
.	.	4d\	.	4B/	.	.	.
.	.	4e\	.	4c/	.	0g	-us
.	.	4f\	.	4d/	.	.	.
.	.	1e	.	1c	.	.	.
=24	=24	=24	=24	=24	=24	=24	=24
1.G	ſpi-	.	.	.	.	.	.
.	.	4d\	.	4B/	.	.	.
.	.	4c\	.	4A/	.	.	.
.	.	2d\	.	2B/	.	2r	.
2G\	-(ri)-	2B/	.	1G	.	2d/	.
=25	=25	=25	=25	=25	=25	=25	=25
2.E/	-(t)us	1e	.	.	.	2.g/	.
.	.	.	.	1g	.	.	.
4F/	me-	.	.	.	.	4a/	.
2G\	-us	2d\	.	.	.	2b\	.
2A\	.	2c\	.	2f\	.	1cc	.
=26	=26	=26	=26	=26	=26	=26	=26
1G	.	1d	.	1g	.	.	.
.	.	.	.	.	.	2b\	.
1C	.	1.c	.	1r	.	1cc	.
=27	=27	=27	=27	=27	=27	=27	=27
1r	.	.	.	0e	in	1g	in
.	.	4B/	.	.	.	.	.
.	.	4A/	.	.	.	.	.
1C	in	1G	.	.	.	2g/	de-
.	.	.	.	.	.	1g	-o
=28	=28	=28	=28	=28	=28	=28	=28
2C/	de-	1r	.	1e	de-	.	.
1C	-o	.	.	.	.	2g/	ſa-
.	.	1.c	In	00e	-o	2g/	-lu-
2C/	ſa-	.	.	.	.	2a/	-ta-
=29	=29	=29	=29	=29	=29	=29	=29
2C/	-lu-	.	.	.	.	2g/	-ri
2C/	-ta-	2c\	de-	.	.	2e/	me-
*	*	*	*	*	*	*lig	*
4AA/	-ri	1c	-o	.	.	1a	-o
4BB/	.	.	.	.	.	.	.
4C/	.	.	.	.	.	.	.
4D/	.	.	.	.	.	.	.
=30	=30	=30	=30	=30	=30	=30	=30
2E/	.	2r	.	.	.	1g	.
2C/	.	2c\	ſa-	.	.	.	.
*	*	*	*	*	*	*Xlig	*
1F	.	2c\	-lu-	1r	.	1r	.
*	*	*custos:A	*	*	*	*	*
.	.	2c\	-ta-	.	.	.	.
!	!	!LO:LB:g=original	!	!	!	!	!
=31	=31	=31	=31	=31	=31	=31	=31
*	*	*	*	*	*	*	*
*	*	*xywh-#244:1798,1512,5847,888	*	*	*	*	*
1E	.	2A/	-ri	1r	.	1r	.
.	.	2c\	.	.	.	.	.
4D/	.	2B\	me-	1r	.	1r	.
4C/	me-	.	.	.	.	.	.
4BB/	.	1A	.	.	.	.	.
4AA/	-o	.	.	.	.	.	.
=32	=32	=32	=32	=32	=32	=32	=32
1BB	.	.	.	1r	.	1r	.
.	.	2G/	.	.	.	.	.
1AA	.	0A	-o	2r	.	2r	.
.	.	.	.	2e\	ſa-	2cc\	ſa-
=33	=33	=33	=33	=33	=33	=33	=33
1r	.	.	.	2e\	-lu-	2cc\	-lu-
.	.	.	.	2e\	-ta-	2cc\	-ta-
1r	.	1r	.	2.f\	-ri	2a\	-ri
.	.	.	.	.	.	2cc\	.
.	.	.	.	4e\	.	.	.
=34	=34	=34	=34	=34	=34	=34	=34
1r	.	1r	.	2d/	.	2b\	me-
.	.	.	.	2c/	.	1a	-o
2r	.	2r	.	2d/	.	.	.
*custos:D	*	*	*	*	*	*	*
*	*	*	*	*	*	*	*ij
2E/	ſa-	2c\	ſa-	2e/	me-	2g/	sa-
!LO:LB:g=original	!	!	!	!	!	!	!
=35	=35	=35	=35	=35	=35	=35	=35
*xywh-#342:7721,2283,6165,976	*	*	*	*	*	*	*
1.F	.	2c\	-lu-	1A	-o	2a/	-lu-
.	.	2c\	-ta-	.	.	2cc\	-ta-
*	*	*	*	*	*ij	*	*
*	*	*	*	*	*	*	*
.	.	2.A\	-ri	1f	sa-	2cc\	-ri
2F/	-lu-	.	.	.	.	2cc\	.
.	.	4B\	.	.	.	.	.
=36	=36	=36	=36	=36	=36	=36	=36
*	*	*	*	*	*	*custos:cc	*
2.F/	-ta-	2c\	.	2f\	-lu-	2a\	sa-
*	*	*	*	*custos:e	*	*	*
!	!	!	!	!	!	!LO:LB:g=original	!
*	*	*	*	*	*	*xywh-#39:1461,2257,6116,897	*
.	.	2A/	.	2f\	-ta-	2.cc\	-lu-
!	!	!	!	!LO:LB:g=original	!	!	!
4G/	-ri	.	.	.	.	.	.
*	*	*	*	*xywh-#140:7806,1524,6420,910	*	*	*
2A\	.	2c\	me-	2e\	-ri	.	.
.	.	.	.	.	.	4b\	-ta-
2D/	me-	2d\	.	2f\	me-	1a	-ri
=37	=37	=37	=37	=37	=37	=37	=37
1E	-o	1B	-o	1e	.	.	.
.	.	.	.	.	.	2g/	me-
0.AA	.	0.A	.	[1e	-o	0.a	-o
*	*	*	*	*	*Xij	*	*
*	*	*	*	*	*	*	*Xij
=38	=38	=38	=38	=38	=38	=38	=38
.	.	.	.	0e]	.	.	.
=39||	=39||	=39||	=39||	=39||	=39||	=39||	=39||
*M2/1	*	*M2/1	*	*M2/1	*	*M2/1	*
*met(C|)	*	*met(C|)	*	*met(C|)	*	*met(C|)	*
0r	.	0r	.	1G	Qui-	0.g	Qui-
.	.	.	.	2A/	-a	.	.
.	.	.	.	1c	.	.	.
=40	=40	=40	=40	=40	=40	=40	=40
0r	.	0r	.	.	.	.	.
.	.	.	.	2B/	fe-	.	.
.	.	.	.	2.c/	-cit	1e	-a
.	.	.	.	4B/	.	.	.
=41	=41	=41	=41	=41	=41	=41	=41
0r	.	0r	.	4c/	.	1e	fe-
.	.	.	.	4B/	.	.	.
.	.	.	.	4A/	.	.	.
.	.	.	.	4G/	.	.	.
.	.	.	.	2A/	.	1f	-cit
.	.	.	.	2d\	.	.	.
=42	=42	=42	=42	=42	=42	=42	=42
0r	.	00G	Qui-	2B/	.	1.g	mi-
.	.	.	.	4G/	.	.	.
.	.	.	.	4A/	.	.	.
.	.	.	.	4B/	.	.	.
.	.	.	.	4c/	.	.	.
.	.	.	.	1d	.	2f/	-hi
=43	=43	=43	=43	=43	=43	=43	=43
0r	.	.	.	.	.	2e/	ma-
.	.	.	.	1c	.	4d/	.
.	.	.	.	.	.	4c/	-gna
.	.	.	.	.	.	2d/	.
.	.	.	.	2B/	.	2d/	.
=44	=44	=44	=44	=44	=44	=44	=44
*	*	*	*	*lig	*	*	*
!	!	!	!	!	!	!	!
0r	.	2.A/	-a	0c	.	2c/	.
.	.	.	.	.	.	2.e/	.
.	.	4G/	.	.	.	.	.
.	.	4A/	.	.	.	.	.
.	.	4B/	.	.	.	4d/	.
.	.	1c	fe-	.	.	4e/	.
.	.	.	.	.	.	4f/	.
=45	=45	=45	=45	=45	=45	=45	=45
!	!	!	!	!	!	!	!
0G	Qui-	.	.	0d	.	1g	.
.	.	4B/	.	.	.	.	.
.	.	4A/	.	.	.	.	.
.	.	1B	-cit	.	.	2r	.
.	.	.	.	.	.	1g	qui-
*	*	*	*	*Xlig	*	*	*
=46	=46	=46	=46	=46	=46	=46	=46
1E	-a	0c	.	0r	.	.	.
.	.	.	.	.	.	2g/	-a
1F	fe-	.	.	.	.	2a\	fe-
.	.	.	.	.	.	1cc	.
=47	=47	=47	=47	=47	=47	=47	=47
*	*	*custos:c	*	*	*	*	*
0G	-cit	0r	.	0g	qui-	.	.
.	.	.	.	.	.	4b\	.
.	.	.	.	.	.	4a\	.
*	*	*	*	*	*	*custos:cc	*
.	.	.	.	.	.	1b	.
!	!	!	!	!	!	!LO:LB:g=original	!
!	!	!LO:LB:g=original	!	!	!	!	!
=48	=48	=48	=48	=48	=48	=48	=48
*	*	*xywh-#244:1752,2360,5905,928	*	*	*	*xywh-#39:1390,3011,6230,927	*
0r	.	1c	mi-	1e	-a	0cc	-cit
.	.	1A	-hi	1f	fe-	.	.
=49	=49	=49	=49	=49	=49	=49	=49
1r	.	1B	.	1.g	-cit	1r	.
2E/	mi-	2c\	mag-	.	.	2r	.
*	*	*	*	*custos:e	*	*	*
2F/	-hi	1d	.	2f\	mi-	2a/	mi-
!	!	!	!	!LO:LB:g=original	!	!	!
=50	=50	=50	=50	=50	=50	=50	=50
*	*	*	*	*xywh-#140:7806,2147,6454,1048	*	*	*
2G\	.	.	.	2e\	-hi	2g/	-hi
2A\	ma-	1c	.	4d/	.	2f/	m(a)-
.	.	.	.	4c/	.	.	.
1G	-gna	.	.	2d/	.	1g	-gna
.	.	2B\	.	2d/	ma-	.	.
=51	=51	=51	=51	=51	=51	=51	=51
0C	.	1c	-na	0c	-gna	2r	.
.	.	.	.	.	.	2c/	qui
.	.	2r	.	.	.	1g	po-
.	.	2G/	qui	.	.	.	.
=52	=52	=52	=52	=52	=52	=52	=52
1r	.	1d	.	0r	.	1a	-tens
2r	.	1e	po-	.	.	2.g/	.
2C/	qui	.	.	.	.	.	.
.	.	.	.	.	.	4a/	.
=53	=53	=53	=53	=53	=53	=53	=53
1G	.	2d\	-tens	0r	.	2b\	eſt
.	.	1e	.	.	.	2g/	.
1A	po-	.	.	.	.	1cc	.
.	.	4d\	.	.	.	.	.
.	.	4c\	.	.	.	.	.
=54	=54	=54	=54	=54	=54	=54	=54
2.G\	-tens	1d	.	2r	.	2b\	.
.	.	.	.	2G/	qui	2.g/	.
4A\	.	.	.	.	.	.	.
2B\	.	1G	eſt	1d	.	.	.
.	.	.	.	.	.	4a\	.
2G\	.	.	.	.	.	2b\	.
=55	=55	=55	=55	=55	=55	=55	=55
2.c\	.	1r	.	1e	po-	2g/	.
.	.	.	.	.	.	2.a/	.
*custos:G	*	*	*	*	*	*	*
4B\	.	.	.	.	.	.	.
!LO:LB:g=original	!	!	!	!	!	!	!
2G\	eſt	2r	.	2.d\	-tens	.	.
.	.	.	.	.	.	4g/	.
*xywh-#342:7735,3052,6102,997	*	*	*	*	*	*	*
*	*	*	*ij	*	*	*	*
2B\	.	2G/	qui	.	.	2g/	.
.	.	.	.	4e\	.	.	.
=56	=56	=56	=56	=56	=56	=56	=56
1A	.	1c	po-	2f\	eſt	2a/	.
.	.	.	.	2e\	.	1cc	.
1G	.	1d	.	2.g\	.	.	.
.	.	.	.	.	.	2b\	.
.	.	.	.	4f\	.	.	.
=57	=57	=57	=57	=57	=57	=57	=57
0r	.	2B/	-tens	2d/	.	2g/	.
.	.	2.c\	.	2.e\	.	2.a/	.
.	.	4B/	.	4d\	.	4g/	.
.	.	4A/	.	2g\	.	2.dd\	.
.	.	4G/	.	.	.	.	.
=58	=58	=58	=58	=58	=58	=58	=58
0r	.	1A	.	4f\	.	.	.
.	.	.	.	4e\	.	4cc\	.
.	.	.	.	4d\	.	1cc	.
.	.	.	.	4c\	.	.	.
.	.	1G	est	1d	.	.	.
*	*	*	*Xij	*	*	*	*
*	*	*	*	*	*	*custos:cc	*
.	.	.	.	.	.	2b\	.
!	!	!	!	!	!	!LO:LB:g=original	!
=59	=59	=59	=59	=59	=59	=59	=59
*	*	*	*	*	*	*xywh-#39:1390,3682,6308,1041	*
*	*	*	*	*	*	*lig	*
2r	.	1r	.	0c	.	1cc	.
1F	et	.	.	.	.	.	.
.	.	2r	.	.	.	1a	.
2F/	ſan-	1c	et	.	.	.	.
*	*	*	*	*	*	*Xlig	*
=60	=60	=60	=60	=60	=60	=60	=60
2E/	-ctu(m)	.	.	0r	.	1g	.
*	*	*custos:B	*	*	*	*	*
2C/	.	2c\	ſan-	.	.	.	.
!	!	!LO:LB:g=original	!	!	!	!	!
*	*	*	*	*	*	*	*
*	*	*xywh-#244:1798,3138,5876,841	*	*	*	*	*
2D/	.	2B/	.	.	.	1r	.
2E/	.	2G/	-ctu(m)	.	.	.	.
=61	=61	=61	=61	=61	=61	=61	=61
1F	.	1A	no-	0r	.	0r	.
2D/	no-	1B	.	.	.	.	.
2.E/	-me(n)	.	.	.	.	.	.
=62	=62	=62	=62	=62	=62	=62	=62
.	.	1.c	-me(n)	0r	.	2r	.
4D/	e-	.	.	.	.	.	.
4C/	.	.	.	.	.	1cc	et
4BB/	.	.	.	.	.	.	.
*lig	*	*	*	*	*	*	*
1AA	.	.	.	.	.	.	.
.	.	4B/	e-	.	.	2cc\	ſan-
.	.	4A/	.	.	.	.	.
=63	=63	=63	=63	=63	=63	=63	=63
1E	.	2G/	.	0r	.	2b\	-ctu(m)
.	.	2.B#X/	.	.	.	2g/	.
*Xlig	*	*	*	*	*	*	*
2C/	-ius	.	.	.	.	1a	no-
.	.	4A/	.	.	.	.	.
2D/	.	1A	.	.	.	.	.
=64	=64	=64	=64	=64	=64	=64	=64
1BB	.	.	.	1r	.	1b	-m(en)
.	.	2G/	.	.	.	.	.
1AA	.	2A/	-ius	2r	.	1.cc	.
.	.	2.F/	.	1f	et	.	.
=65	=65	=65	=65	=65	=65	=65	=65
0r	.	.	.	.	.	.	.
.	.	4G/	.	.	.	.	.
.	.	4A/	.	2f\	ſan-	4b\	e-
.	.	4B/	.	.	.	4a\	-ius
*	*	*lig	*	*	*	*	*
.	.	1c	.	2e\	-ctum	1g	.
.	.	.	.	2c\	no-	.	.
=66	=66	=66	=66	=66	=66	=66	=66
0r	.	1G	.	2d\	-m(en)	2r	.
.	.	.	.	2e\	.	2g/	.
*	*	*	*	*custos:f	*	*	*
*	*	*Xlig	*	*	*	*	*
.	.	1r	.	1f	.	1a	.
!	!	!	!	!LO:LB:g=original	!	!	!
=67	=67	=67	=67	=67	=67	=67	=67
*	*	*	*	*xywh-#140:7771,3057,6489,922	*	*	*
0r	.	2r	.	2e\	e-	2.g/	.
.	.	1c	et	2.g\	-ius	.	.
.	.	.	.	.	.	4f/	.
.	.	.	.	.	.	4e/	.
.	.	.	.	4f\	.	4d/	.
.	.	2c\	ſan-	2e\	.	2.g/	.
=68	=68	=68	=68	=68	=68	=68	=68
0r	.	2B/	-ctu(m)	2d\	.	.	.
.	.	.	.	.	.	4f/	.
.	.	2G/	no-	1e	.	4g/	.
.	.	.	.	.	.	4e/	.
.	.	2A/	m(en)	.	.	1f	.
.	.	2B/	e-	2d\	.	.	.
=69	=69	=69	=69	=69	=69	=69	=69
2r	.	1c	-ius	1.e	.	2e/	.
1A	et	.	.	.	.	1cc	et
.	.	2r	.	.	.	.	.
2A\	ſan-	2c\	no-	2f\	.	2cc\	ſan-
=70	=70	=70	=70	=70	=70	=70	=70
2G\	-ctu(m)	2d\	.	1g	.	2b\	-ctu(m)
2E/	.	2e\	.	.	.	2g/	.
*	*	*custos:d	*	*	*	*	*
2F/	.	2A/	-me(n)	2r	.	2a/	.
!	!	!LO:LB:g=original	!	!	!	!	!
*	*	*xywh-#244:1798,3854,5847,1303	*	*	*	*	*
2G/	no-	2.d\	e-	2g\	.	2.b/	no-
=71	=71	=71	=71	=71	=71	=71	=71
2D/	-m(en)	.	.	2f\	no-	.	.
.	.	4c\	.	.	.	4a/	-m(en)
2F/	e-	2A/	.	2d/	-m(en)	1a	e-
1E	-ius	1B	-ius	1e	e-	.	.
.	.	.	.	.	.	2g/	-ius
=72	=72	=72	=72	=72	=72	=72	=72
*custos:G	*	*	*	*	*	*	*
0AA	.	0A	.	0e	-ius	0a	.
!	!	!	!	!	!	!LO:LB:g=original	!
!LO:LB:g=original	!	!	!	!	!	!	!
=73||	=73||	=73||	=73||	=73||	=73||	=73||	=73||
*M2/1	*	*M2/1	*	*M2/1	*	*M2/1	*
*met(C|)	*	*met(C|)	*	*met(C|)	*	*met(C|)	*
*xywh-#342:7762,3745,6095,1281	*	*	*	*	*	*xywh-#39:7742,581,6469,1023	*
!	!	!LO:TX:a:B:t=Fecit potentiam\nori suo ne loquatur.	!	!	!	!LO:TX:B:a:t=Fecit potentia(m)\ntacendo.	!
*	*	*	*	*	*	*	*
1G	Fe-	0ryy	.	1G	Fe-	0ryy	.
2.F/	-cit	.	.	2.A/	-cit	.	.
4G/	.	.	.	4B/	.	.	.
=74	=74	=74	=74	=74	=74	=74	=74
2E/	po-	0ryy	.	2c/	.	0ryy	.
2.F/	-ten-	.	.	1d	po-	.	.
4E/	.	.	.	.	.	.	.
4D/	.	.	.	1c	-ten-	.	.
4C/	.	.	.	.	.	.	.
=75	=75	=75	=75	=75	=75	=75	=75
2D/	-ti-	0ryy	.	.	.	0ryy	.
2D/	-a(m)	.	.	2B/	-ti-	.	.
*	*	*	*	*lig	*	*	*
2C/	.	.	.	1c	-a(m)	.	.
1c	.	.	.	.	.	.	.
=76	=76	=76	=76	=76	=76	=76	=76
.	.	0ryy	.	1d	.	0ryy	.
2B\	.	.	.	.	.	.	.
*	*	*	*	*Xlig	*	*	*
2.c\	.	.	.	2.e\	.	.	.
4B\	.	.	.	4d\	.	.	.
=77	=77	=77	=77	=77	=77	=77	=77
2A\	.	0ryy	.	4e\	.	0ryy	.
.	.	.	.	4f\	.	.	.
2G\	.	.	.	2g\	.	.	.
1A	.	.	.	2f\	.	.	.
.	.	.	.	1e	.	.	.
=78	=78	=78	=78	=78	=78	=78	=78
0G	.	0ryy	.	.	.	0ryy	.
.	.	.	.	4d/	.	.	.
*	*	*	*	*custos:d	*	*	*
.	.	.	.	4c/	.	.	.
!	!	!	!	!LO:LB:g=original	!	!	!
*	*	*	*	*xywh-#140:7783,3789,6235,1481	*	*	*
.	.	.	.	2d\	.	.	.
.	.	.	.	2e\	.	.	.
=79	=79	=79	=79	=79	=79	=79	=79
2r	.	0ryy	.	00d	.	0ryy	.
*	*ij	*	*	*	*	*	*
1G	fe-	.	.	.	.	.	.
4F/	.	.	.	.	.	.	.
4E/	.	.	.	.	.	.	.
=80	=80	=80	=80	=80	=80	=80	=80
2F/	-cit	0ryy	.	.	.	0ryy	.
2G\	.	.	.	.	.	.	.
2D/	.	.	.	.	.	.	.
2.G/	po-	.	.	.	.	.	.
=81	=81	=81	=81	=81	=81	=81	=81
.	.	0ryy	.	2.g\	po-	0ryy	.
4F/	-ten-	.	.	.	.	.	.
4E/	.	.	.	.	.	.	.
4D/	.	.	.	4f\	-ten-	.	.
2C/	.	.	.	2e\	-ti-	.	.
2G\	-ti-	.	.	2d\	-a(m)	.	.
=82	=82	=82	=82	=82	=82	=82	=82
*custos:c	*	*	*	*	*	*	*
2A\	-am	0ryy	.	2c/	.	0ryy	.
!LO:LB:g=original	!	!	!	!	!	!	!
*	*Xij	*	*	*	*	*	*
*xywh-#343:1376,549,6213,1191	*	*	*	*	*	*	*
2.c\	.	.	.	2.e\	.	.	.
4B\	.	.	.	4d/	.	.	.
4A\	.	.	.	4c/	.	.	.
4G\	.	.	.	4B/	.	.	.
=83	=83	=83	=83	=83	=83	=83	=83
2A\	.	0ryy	.	4c/	.	0ryy	.
.	.	.	.	4B/	.	.	.
1G	.	.	.	4A/	.	.	.
.	.	.	.	4G/	.	.	.
.	.	.	.	1A	.	.	.
2F/	.	.	.	.	.	.	.
=84	=84	=84	=84	=84	=84	=84	=84
0G	.	0ryy	.	1G	.	0ryy	.
.	.	.	.	2r	.	.	.
.	.	.	.	2d\	in	.	.
=85	=85	=85	=85	=85	=85	=85	=85
2r	.	0ryy	.	2d\	.	0ryy	.
2G/	in	.	.	2d\	bra-	.	.
2G/	bra-	.	.	4B/	-chi-	.	.
.	.	.	.	4c/	-o	.	.
2G/	-chi-	.	.	4d/	.	.	.
.	.	.	.	4B/	.	.	.
=86	=86	=86	=86	=86	=86	=86	=86
2.E/	-o	0ryy	.	4c/	.	0ryy	.
.	.	.	.	4B/	.	.	.
.	.	.	.	2.e\	ſu-	.	.
4F/	.	.	.	.	.	.	.
2G/	.	.	.	.	.	.	.
.	.	.	.	4d/	.	.	.
2A/	ſu-	.	.	4c/	-o	.	.
.	.	.	.	4B/	.	.	.
=87	=87	=87	=87	=87	=87	=87	=87
4A/	-o	0ryy	.	1c	.	0ryy	.
4G/	.	.	.	.	.	.	.
4F/	.	.	.	.	.	.	.
4E/	.	.	.	.	.	.	.
2F/	.	.	.	1d	.	.	.
2G/	.	.	.	.	.	.	.
=88	=88	=88	=88	=88	=88	=88	=88
1C	.	0ryy	.	0e	.	0ryy	.
2r	.	.	.	.	.	.	.
2G/	in	.	.	.	.	.	.
=89	=89	=89	=89	=89	=89	=89	=89
*	*	*	*	*custos:g	*	*	*
2G/	.	0ryy	.	2r	.	0ryy	.
!	!	!	!	!LO:LB:g=original	!	!	!
*	*	*	*	*xywh-#141:1462,498,6229,1077	*	*	*
2G/	.	.	.	2g\	in	.	.
2.E/	bra-	.	.	2g\	.	.	.
.	.	.	.	2g\	bra-	.	.
4F/	-chi-	.	.	.	.	.	.
=90	=90	=90	=90	=90	=90	=90	=90
4G/	-o	0ryy	.	2e\	-chi-	0ryy	.
4E/	.	.	.	.	.	.	.
2.A\	ſu-	.	.	2.f\	-o	.	.
4G/	.	.	.	4e/	ſu-	.	.
4F/	-o	.	.	4d/	.	.	.
*custos:F	*	*	*	*	*	*	*
4E/	.	.	.	4c/	-o	.	.
!LO:LB:g=original	!	!	!	!	!	!	!
=91	=91	=91	=91	=91	=91	=91	=91
*xywh-#343:1729,1532,5908,1004	*	*	*	*	*	*	*
4F/	.	0ryy	.	2d/	.	0ryy	.
4E/	.	.	.	.	.	.	.
4D/	.	.	.	1c	.	.	.
4C/	.	.	.	.	.	.	.
1D	.	.	.	.	.	.	.
.	.	.	.	2B/	.	.	.
=92	=92	=92	=92	=92	=92	=92	=92
1C	.	0ryy	.	0c	.	0ryy	.
2r	.	.	.	.	.	.	.
2F/	di-	.	.	.	.	.	.
=93	=93	=93	=93	=93	=93	=93	=93
2G/	-ſper-	0ryy	.	1r	.	0ryy	.
2G/	.	.	.	.	.	.	.
1A	-sit	.	.	1c	diſ-	.	.
=94	=94	=94	=94	=94	=94	=94	=94
2F/	ſu-	0ryy	.	2d/	-per-	0ryy	.
2.G/	-per-	.	.	2d/	-ſit	.	.
.	.	.	.	1e	.	.	.
4E/	-bos	.	.	.	.	.	.
1A	.	.	.	.	.	.	.
=95	=95	=95	=95	=95	=95	=95	=95
.	.	0ryy	.	2c/	ſu-	0ryy	.
2F/	.	.	.	2.d/	-per-	.	.
2.G/	.	.	.	.	.	.	.
.	.	.	.	4c/	-bos	.	.
.	.	.	.	4B/	.	.	.
4F/	.	.	.	4A/	.	.	.
=96	=96	=96	=96	=96	=96	=96	=96
4E/	.	0ryy	.	2G/	.	0ryy	.
4D/	.	.	.	.	.	.	.
2E/	.	.	.	2.g\	.	.	.
4C/	.	.	.	.	.	.	.
4D/	.	.	.	4f\	.	.	.
4E/	.	.	.	2e/	.	.	.
4F/	.	.	.	.	.	.	.
=97	=97	=97	=97	=97	=97	=97	=97
2G/	.	0ryy	.	2d/	.	0ryy	.
2.A\	.	.	.	2.f\	.	.	.
4G/	.	.	.	4e\	.	.	.
4F/	.	.	.	1e	.	.	.
4E/	.	.	.	.	.	.	.
=98	=98	=98	=98	=98	=98	=98	=98
1F	.	0ryy	.	.	.	0ryy	.
.	.	.	.	2d/	.	.	.
0.E	.	.	.	1e	.	.	.
=99	=99	=99	=99	=99	=99	=99	=99
.	.	0ryy	.	2r	.	0ryy	.
.	.	.	.	2B/	men-	.	.
.	.	.	.	2c/	-te	.	.
*	*	*	*	*custos:B	*	*	*
.	.	.	.	2c/	cor-	.	.
!	!	!	!	!LO:LB:g=original	!	!	!
=100	=100	=100	=100	=100	=100	=100	=100
*	*	*	*	*xywh-#141:1624,1431,5947,922	*	*	*
2r	.	0ryy	.	4B/	-dis	0ryy	.
.	.	.	.	4A/	.	.	.
2G/	men-	.	.	4B/	.	.	.
.	.	.	.	4c/	.	.	.
2G/	-te	.	.	2d/	.	.	.
2E/	.	.	.	4G/	.	.	.
.	.	.	.	4A/	ſu-	.	.
=101	=101	=101	=101	=101	=101	=101	=101
*lig	*	*	*	*	*	*	*
1G	.	0ryy	.	4B/	-i	0ryy	.
.	.	.	.	4c/	.	.	.
.	.	.	.	2.d/	.	.	.
1F	.	.	.	.	.	.	.
.	.	.	.	4c/	.	.	.
.	.	.	.	2A/	.	.	.
*Xlig	*	*	*	*	*	*	*
=102	=102	=102	=102	=102	=102	=102	=102
2.E/	cor-	0ryy	.	2c/	.	0ryy	.
.	.	.	.	2.B/	.	.	.
*custos:G	*	*	*	*	*	*	*
4F/	-dis	.	.	.	.	.	.
!LO:LB:g=original	!	!	!	!	!	!	!
*xywh-#343:1701,2329,5915,976	*	*	*	*	*	*	*
4G/	.	.	.	.	.	.	.
4E/	.	.	.	4c/	.	.	.
2F/	.	.	.	4d/	.	.	.
.	.	.	.	4B/	.	.	.
=103	=103	=103	=103	=103	=103	=103	=103
2E/	.	0ryy	.	4c/	.	0ryy	.
.	.	.	.	4B/	.	.	.
2C/	.	.	.	2e\	.	.	.
2.F/	.	.	.	2d\	.	.	.
.	.	.	.	1c	.	.	.
4E/	ſu-	.	.	.	.	.	.
=104	=104	=104	=104	=104	=104	=104	=104
4F/	-i	0ryy	.	.	.	0ryy	.
4G/	.	.	.	.	.	.	.
1A	.	.	.	4B/	.	.	.
.	.	.	.	4A/	.	.	.
.	.	.	.	1B	.	.	.
2G/	.	.	.	.	.	.	.
=105	=105	=105	=105	=105	=105	=105	=105
0A	.	0ryy	.	2r	.	0ryy	.
.	.	.	.	2A/	men-	.	.
.	.	.	.	2.c/	-te	.	.
.	.	.	.	4d/	.	.	.
=106	=106	=106	=106	=106	=106	=106	=106
2r	.	0ryy	.	2e\	cor-	0ryy	.
2A\	men-	.	.	2.f\	-diſ	.	.
2G/	.	.	.	.	.	.	.
.	.	.	.	4e\	.	.	.
2E/	-te	.	.	2f\	ſu-	.	.
=107	=107	=107	=107	=107	=107	=107	=107
*lig	*	*	*	*	*	*	*
1F	cor-	0ryy	.	2c/	-i	0ryy	.
*	*	*	*	*custos:e	*	*	*
.	.	.	.	1d	.	.	.
!	!	!	!	!LO:LB:g=original	!	!	!
1G	.	.	.	.	.	.	.
*	*	*	*	*xywh-#141:1525,2175,6189,1066	*	*	*
.	.	.	.	2.e\	men-	.	.
*Xlig	*	*	*	*	*	*	*
=108	=108	=108	=108	=108	=108	=108	=108
1.A	-dis	0ryy	.	.	.	0ryy	.
.	.	.	.	4c/	-te	.	.
.	.	.	.	2.f\	cor-	.	.
.	.	.	.	4e\	.	.	.
2G/	.	.	.	1e	-dis	.	.
=109	=109	=109	=109	=109	=109	=109	=109
1F	ſ-	0ryy	.	.	.	0ryy	.
.	.	.	.	2d/	su-	.	.
2.E/	.	.	.	0e	-i	.	.
4F/	.	.	.	.	.	.	.
=110	=110	=110	=110	=110	=110	=110	=110
4G/	.	0ryy	.	.	.	0ryy	.
4E/	-i	.	.	.	.	.	.
2.A\	.	.	.	.	.	.	.
*	*	*	*	*	*ij	*	*
.	.	.	.	2c/	cor-	.	.
4F/	.	.	.	.	.	.	.
2.B\	.	.	.	1d	.	.	.
=111	=111	=111	=111	=111	=111	=111	=111
.	.	0ryy	.	.	.	0ryy	.
4A\	.	.	.	.	.	.	.
1A	.	.	.	2c/	-dis	.	.
.	.	.	.	1B	su-	.	.
2G/	.	.	.	.	.	.	.
=112	=112	=112	=112	=112	=112	=112	=112
*custos:G	*	*	*	*	*	*	*
0A	.	0ryy	.	0A	-i	0ryy	.
*	*	*	*	*	*Xij	*	*
!LO:LB:g=original	!	!	!	!	!	!	!
=113||	=113||	=113||	=113||	=113||	=113||	=113||	=113||
*M2/1	*	*M2/1	*	*M2/1	*	*M2/1	*
*met(C|)	*	*met(C|)	*	*met(C|)	*	*met(C|)	*
*xywh-#343:1666,3056,5943,969	*	*	*	*	*	*	*
!	!	!	!	!	!	!LO:TX:a:B:t=Eſurientes \nremnant.	!
1G	E-	0r	.	0r	.	0ryy	.
2F/	-ſu-	.	.	.	.	.	.
2E/	-ri-	.	.	.	.	.	.
=114	=114	=114	=114	=114	=114	=114	=114
1D	-en-	1r	.	1r	.	0ryy	.
2C/	-tes	1G	E-	1g	E-	.	.
2E/	.	.	.	.	.	.	.
=115	=115	=115	=115	=115	=115	=115	=115
2D/	.	2A/	-ſu-	2f\	-ſu-	0ryy	.
2C/	.	1c	-ri-	2e\	-ri-	.	.
1G	.	.	.	1d	-en-	.	.
.	.	2B/	-en-	.	.	.	.
=116	=116	=116	=116	=116	=116	=116	=116
*	*	*lig	*	*	*	*	*
2r	.	1c	.	2c/	-tes	0ryy	.
2C/	im-	.	.	2e\	.	.	.
*	*	*col	*	*	*	*	*
2D/	-ple-	2.A\	-tes	2d\	.	.	.
2F/	-vit	.	.	2c/	.	.	.
*	*	*Xlig	*	*	*	*	*
.	.	4B/	.	.	.	.	.
*	*	*Xcol	*	*	*	*	*
=117	=117	=117	=117	=117	=117	=117	=117
2.E/	bo-	2c\	.	1g	.	0ryy	.
.	.	2.B/	.	.	.	.	.
4F/	.	.	.	.	.	.	.
4G/	.	.	.	1r	.	.	.
4E/	.	4G/	.	.	.	.	.
2.A	-nis	2.c\	.	.	.	.	.
=118	=118	=118	=118	=118	=118	=118	=118
.	.	.	.	2r	.	0ryy	.
4G/	.	4B/	.	.	.	.	.
4F/	.	4A/	.	2c/	im-	.	.
4E/	.	4G/	.	.	.	.	.
*	*	*custos:d	*	*	*	*	*
1D	.	2A/	.	2d/	-ple-	.	.
!	!	!LO:LB:g=original	!	!	!	!	!
*	*	*xywh-#244:7747,582,6372,968	*	*	*	*	*
.	.	2.d\	.	2f\	-vit	.	.
=119	=119	=119	=119	=119	=119	=119	=119
*lig	*	*	*	*	*	*	*
1A	.	.	.	2.e\	bo-	0ryy	.
.	.	4c\	.	.	.	.	.
.	.	1c	.	.	.	.	.
.	.	.	.	4f\	.	.	.
1G	.	.	.	1g	-nis	.	.
.	.	2B/	.	.	.	.	.
*Xlig	*	*	*	*	*	*	*
=120	=120	=120	=120	=120	=120	=120	=120
0C	.	1.c	.	2r	.	0ryy	.
.	.	.	.	2G/	im-	.	.
.	.	.	.	2A/	-ple-	.	.
*	*	*	*	*custos:b	*	*	*
.	.	2e\	.	2c/	-vit	.	.
!	!	!	!	!LO:LB:g=original	!	!	!
=121	=121	=121	=121	=121	=121	=121	=121
*	*	*	*	*xywh-#141:1537,2976,6183,864	*	*	*
2r	.	1d	.	2.B/	bo-	0ryy	.
2.G/	.	.	.	.	.	.	.
.	.	.	.	4c/	.	.	.
.	.	1G	.	2d/	-nis	.	.
4F/	.	.	.	.	.	.	.
4E/	.	.	.	1e	.	.	.
4D/	.	.	.	.	.	.	.
=122	=122	=122	=122	=122	=122	=122	=122
2C/	.	2r	.	.	.	0ryy	.
2E/	.	2G/	im-	2c/	.	.	.
2D/	.	2A/	-ple-	2d/	.	.	.
2C/	.	2c\	-vit	1e	.	.	.
=123	=123	=123	=123	=123	=123	=123	=123
0G	.	2.B/	.	.	.	0ryy	.
.	.	.	.	4d/	.	.	.
.	.	4c/	bo-	4c/	.	.	.
.	.	2d\	.	1B	.	.	.
.	.	2.e\	.	.	.	.	.
=124	=124	=124	=124	=124	=124	=124	=124
2E/	.	.	.	2r	.	0ryy	.
.	.	4d\	.	.	.	.	.
*custos:D	*	*	*	*	*	*	*
2F/	.	1c	.	2c/	im-	.	.
!LO:LB:g=original	!	!	!	!	!	!	!
*xywh-#343:1660,3839,6012,1205	*	*	*	*	*	*	*
1D	.	.	.	2d/	-ple-	.	.
.	.	2B/	.	2f\	-vit	.	.
=125	=125	=125	=125	=125	=125	=125	=125
1C	.	1c	-nis	2e\	.	0ryy	.
.	.	.	.	2.g\	bo-	.	.
2r	.	1r	.	.	.	.	.
.	.	.	.	4f\	-nis	.	.
2G/	im-	.	.	4g\	.	.	.
.	.	.	.	4e\	.	.	.
=126	=126	=126	=126	=126	=126	=126	=126
2A\	-ple-	0r	.	2f\	.	0ryy	.
2c\	-vit	.	.	2e\	.	.	.
2.B\	.	.	.	2d\	.	.	.
.	.	.	.	2.g\	.	.	.
4A\	.	.	.	.	.	.	.
=127	=127	=127	=127	=127	=127	=127	=127
2B\	bo-	0r	.	.	.	0ryy	.
.	.	.	.	4f\	.	.	.
2.c\	.	.	.	4e\	.	.	.
.	.	.	.	4d\	.	.	.
.	.	.	.	4e\	.	.	.
4B\	.	.	.	4d\	.	.	.
4A\	.	.	.	4c/	.	.	.
4G\	-nis	.	.	4B/	.	.	.
=128	=128	=128	=128	=128	=128	=128	=128
2A\	.	2r	.	2c/	.	0ryy	.
*	*	*	*ij	*	*	*	*
1G	.	2G/	im-	2B/	.	.	.
.	.	2A/	-ple-	2c/	.	.	.
2F/	.	2c\	-vit	2A/	.	.	.
=129	=129	=129	=129	=129	=129	=129	=129
*	*	*	*	*custos:B	*	*	*
1.G	.	2.B\	bo-	1d	.	0ryy	.
!	!	!	!	!LO:LB:g=original	!	!	!
.	.	4c\	.	.	.	.	.
*	*	*	*	*xywh-#141:1543,3748,6149,1025	*	*	*
.	.	2d\	.	2B/	.	.	.
2E/	.	[2e'\	.	2G/	.	.	.
=130	=130	=130	=130	=130	=130	=130	=130
*lig	*	*	*	*lig	*	*	*
1A	.	4e\]	.	1c	.	0ryy	.
.	.	4d\	.	.	.	.	.
.	.	1c	.	.	.	.	.
1G	.	.	.	1d	.	.	.
.	.	2B/	.	.	.	.	.
*	*	*custos:c	*	*	*	*	*
*Xlig	*	*	*	*Xlig	*	*	*
!	!	!LO:LB:g=original	!	!	!	!	!
=131	=131	=131	=131	=131	=131	=131	=131
*	*	*xywh-#244:7748,1350,6124,940	*	*	*	*	*
0C	.	1c	-nis	0e	.	0ryy	.
*	*	*	*Xij	*	*	*	*
.	.	1r	.	.	.	.	.
=132	=132	=132	=132	=132	=132	=132	=132
1r	.	1c	et	1r	.	0ryy	.
1C	et	2c\	di-	1g	et	.	.
.	.	2c\	-vi-	.	.	.	.
=133	=133	=133	=133	=133	=133	=133	=133
2C/	di-	2.c\	-tes	2g\	di-	0ryy	.
2C/	-vi-	.	.	2g\	-vi-	.	.
.	.	4B\	.	.	.	.	.
1C	-tes	4c\	.	1g	-tes	.	.
.	.	4d\	.	.	.	.	.
.	.	1e	.	.	.	.	.
=134	=134	=134	=134	=134	=134	=134	=134
2r	.	.	.	2r	.	0ryy	.
2G/	di-	4d\	.	2g\	di-	.	.
.	.	4c\	.	.	.	.	.
2G/	-mi-	1d	.	2g\	-mi-	.	.
2G/	.	.	.	2g\	-ſit	.	.
=135	=135	=135	=135	=135	=135	=135	=135
2.c\	-ſit	1c	.	2e\	i-	0ryy	.
.	.	.	.	2g\	-na-	.	.
4B\	.	.	.	.	.	.	.
2A\	in-	1r	.	2f\	.	.	.
2G\	-a-	.	.	1e	.	.	.
=136	=136	=136	=136	=136	=136	=136	=136
1F	-nes	1r	.	.	.	0ryy	.
.	.	.	.	2d/	-nes	.	.
1.E	.	2r	.	0e	.	.	.
.	.	2G/	di-	.	.	.	.
=137	=137	=137	=137	=137	=137	=137	=137
.	.	2G/	-mi-	.	.	0ryy	.
*custos:C	*	*	*	*	*	*	*
2C/	.	2G/	-ſit	.	.	.	.
!LO:LB:g=original	!	!	!	!	!	!	!
*xywh-#343:7661,695,6407,1039	*	*	*	*	*	*	*
1C	.	2.c\	.	2r	.	.	.
.	.	.	.	2c/	di-	.	.
.	.	4B/	in-	.	.	.	.
=138	=138	=138	=138	=138	=138	=138	=138
2r	.	2A/	.	2c/	-mi-	0ryy	.
*	*ij	*	*	*	*	*	*
2C/	di-	2G/	.	2c/	-ſit	.	.
2D/	-mi-	1F	-a-	1A	i-	.	.
2D/	-sit	.	.	.	.	.	.
=139	=139	=139	=139	=139	=139	=139	=139
4AA/	i-	2.E/	-nes	1c	-na-	0ryy	.
4BB/	.	.	.	.	.	.	.
4C/	.	.	.	.	.	.	.
4D/	.	4F/	.	.	.	.	.
2E/	-na-	1G	.	2B/	-nes	.	.
2C/	.	.	.	2.c/	.	.	.
=140	=140	=140	=140	=140	=140	=140	=140
1.F	.	1r	.	.	.	0ryy	.
.	.	.	.	4B/	.	.	.
.	.	.	.	1A	.	.	.
.	.	1c	et	.	.	.	.
2E/	.	.	.	2G/	.	.	.
=141	=141	=141	=141	=141	=141	=141	=141
1F	.	2c\	di-	4A/	.	0ryy	.
.	.	.	.	4B/	.	.	.
.	.	2c\	-vi-	4c/	.	.	.
*	*	*	*	*custos:e	*	*	*
.	.	.	.	4d/	.	.	.
!	!	!	!	!LO:LB:g=original	!	!	!
*	*	*	*	*xywh-#141:7750,584,6512,1020	*	*	*
0C	-nes	1c	-tes	2e\	.	.	.
*	*Xij	*	*	*	*	*	*
.	.	.	.	4c/	.	.	.
.	.	.	.	4d/	.	.	.
=142	=142	=142	=142	=142	=142	=142	=142
.	.	2r	.	4e/	.	0ryy	.
.	.	.	.	4f/	.	.	.
*	*	*custos:c	*	*	*	*	*
.	.	2c\	di-	2.g\	.	.	.
!	!	!LO:LB:g=original	!	!	!	!	!
*	*	*xywh-#244:7823,2151,5986,922	*	*	*	*	*
1r	.	2c\	-mi-	.	.	.	.
.	.	.	.	4f\	.	.	.
.	.	2c\	-ſit	4e\	.	.	.
.	.	.	.	4d\	.	.	.
=143	=143	=143	=143	=143	=143	=143	=143
1r	.	2A/	.	2c/	.	0ryy	.
.	.	2c\	in-	2e/	.	.	.
2r	.	2B/	.	2d/	.	.	.
2F/	di-	1A	-a-	2c/	.	.	.
=144	=144	=144	=144	=144	=144	=144	=144
2F/	-mi-	.	.	2d/	.	0ryy	.
2E/	-ſit	2G/	-nes	2e/	.	.	.
2D/	.	1A	.	1f	.	.	.
2F/	i-	.	.	.	.	.	.
=145	=145	=145	=145	=145	=145	=145	=145
4C/	-na-	0r	.	1e	.	0ryy	.
4D/	.	.	.	.	.	.	.
4E/	-nes	.	.	.	.	.	.
4F/	.	.	.	.	.	.	.
2G/	.	.	.	2d/	.	.	.
1A	.	.	.	2c/	.	.	.
=146	=146	=146	=146	=146	=146	=146	=146
.	.	1r	.	1B	.	0ryy	.
2G/	.	.	.	.	.	.	.
2.A/	.	2r	.	2r	.	.	.
.	.	2c\	di-	2.A'/	di-	.	.
4G/	.	.	.	.	.	.	.
=147	=147	=147	=147	=147	=147	=147	=147
4F/	.	2c\	-mi-	.	.	0ryy	.
4E/	.	.	.	4G/	-mi-	.	.
1F	.	2c\	-ſit	4A/	-ſit	.	.
.	.	.	.	4B/	.	.	.
.	.	1A	.	4c/	.	.	.
.	.	.	.	4B/	.	.	.
4E/	.	.	.	4c/	.	.	.
4D/	.	.	.	4d/	.	.	.
=148	=148	=148	=148	=148	=148	=148	=148
2C/	.	1c	ma-	1.e	.	0ryy	.
*custos:E	*	*	*	*	*	*	*
2AA/	.	.	.	.	.	.	.
!LO:LB:g=original	!	!	!	!	!	!	!
*xywh-#343:7758,1582,6137,838	*	*	*	*	*	*	*
2.E/	in-	2.B/	.	.	.	.	.
.	.	.	.	2.g'\	.	.	.
4F/	.	4A/	.	.	.	.	.
=149	=149	=149	=149	=149	=149	=149	=149
2G\	.	2B/	.	.	.	0ryy	.
.	.	.	.	4f\	.	.	.
1A	.	2.c\	.	4e\	.	.	.
.	.	.	.	4d\	.	.	.
.	.	.	.	2c/	.	.	.
.	.	4B/	.	.	.	.	.
*	*	*	*	*custos:b	*	*	*
2D/	.	1A	.	2d/	.	.	.
!	!	!	!	!LO:LB:g=original	!	!	!
=150	=150	=150	=150	=150	=150	=150	=150
*	*	*	*	*xywh-#141:7831,1449,6120,870	*	*	*
1E	.	.	.	2B/	.	0ryy	.
*	*	*	*	*lig	*	*	*
.	.	2G/	-nes	1e	i-	.	.
2C/	-a-	[yy1A	.	.	.	.	.
1D	-nes	.	.	1f	.	.	.
*	*	*	*	*Xlig	*	*	*
=151	=151	=151	=151	=151	=151	=151	=151
.	.	00A]	.	.	.	0ryy	.
4C/	.	.	.	4e\	-na-	.	.
4BB/	.	.	.	4d\	.	.	.
0.AA	.	.	.	2e\	-nes	.	.
.	.	.	.	2A/	.	.	.
=152	=152	=152	=152	=152	=152	=152	=152
.	.	.	.	2.c/	.	0ryy	.
.	.	.	.	4d/	.	.	.
.	.	.	.	1e	.	.	.
=153||	=153||	=153||	=153||	=153||	=153||	=153||	=153||
*M2/1	*	*M2/1	*	*M2/1	*	*M2/1	*
*met(C|)	*	*met(C|)	*	*met(C|)	*	*met(C|)	*
*	*	*	*	*	*	*	*
!LO:TX:a:B:t=Sicut loquutus\nest, ita tacet.	!	!	!	!LO:TX:a:B:t=Sicut loquutus\nobmutuit.	!	!	!
0ryy	.	1G	ſi-	0ryy	.	0r	.
.	.	2A/	-cut	.	.	.	.
.	.	2c\	.	.	.	.	.
=154	=154	=154	=154	=154	=154	=154	=154
0ryy	.	2c\	lo-	0ryy	.	1r	.
.	.	2B\	-cu-	.	.	.	.
.	.	2.c\	-tus	.	.	1g	Si-
*	*	*custos:c	*	*	*	*	*
.	.	4B\	.	.	.	.	.
!	!	!LO:LB:g=original	!	!	!	!	!
=155	=155	=155	=155	=155	=155	=155	=155
*	*	*xywh-#244:7806,2953,5997,893	*	*	*	*	*
0ryy	.	2c\	eſt	0ryy	.	2a/	-cut
.	.	2e\	.	.	.	2cc\	lo-
.	.	1d	.	.	.	2cc\	-cu-
.	.	.	.	.	.	2b\	-tus
=156	=156	=156	=156	=156	=156	=156	=156
0ryy	.	2r	.	0ryy	.	0cc	e(st)
.	.	2c\	ad	.	.	.	.
.	.	2A/	.	.	.	.	.
.	.	2.c\	p(at)-	.	.	.	.
=157	=157	=157	=157	=157	=157	=157	=157
0ryy	.	.	.	0ryy	.	2r	.
.	.	4B/	-res	.	.	.	.
.	.	4A/	.	.	.	1cc	ad
.	.	4G/	.	.	.	.	.
.	.	1A	.	.	.	.	.
.	.	.	.	.	.	2cc\	p(at)-
=158	=158	=158	=158	=158	=158	=158	=158
0ryy	.	4G/	.	0ryy	.	1.b	-res
.	.	4A/	no-	.	.	.	.
.	.	4B\	.	.	.	.	.
.	.	4c\	.	.	.	.	.
.	.	4d\	-ſtros	.	.	.	.
.	.	4B\	.	.	.	.	.
.	.	2.e\	.	.	.	2.cc\	no-
=159	=159	=159	=159	=159	=159	=159	=159
0ryy	.	.	.	0ryy	.	.	.
.	.	4d\	.	.	.	4b\	.
.	.	4c\	.	.	.	4a\	.
.	.	4B\	.	.	.	4g\	.
.	.	2c\	.	.	.	1a	-ſtros
.	.	2d\	.	.	.	.	.
=160	=160	=160	=160	=160	=160	=160	=160
0ryy	.	2e\	.	0ryy	.	0g	.
.	.	1c	.	.	.	.	.
.	.	4B/	.	.	.	.	.
.	.	4A/	.	.	.	.	.
=161	=161	=161	=161	=161	=161	=161	=161
*	*	*	*	*	*	*custos:g	*
0ryy	.	2B/	.	0ryy	.	2r	.
!	!	!	!	!	!	!LO:LB:g=original	!
*	*	*	*	*	*	*xywh-#39:7736,1413,6350,975	*
*	*	*	*	*	*	*	*ij
.	.	2c\	.	.	.	2g/	ad
.	.	2A/	.	.	.	2a/	pat-
.	.	2B/	.	.	.	1g	.
=162	=162	=162	=162	=162	=162	=162	=162
0ryy	.	1c	.	0ryy	.	.	.
.	.	.	.	.	.	4f/	-res
.	.	.	.	.	.	4e/	.
.	.	2r	.	.	.	2f/	no-
.	.	1c	ad	.	.	2g/	.
=163	=163	=163	=163	=163	=163	=163	=163
0ryy	.	.	.	0ryy	.	1a	-stros
*	*	*	*	*	*	*	*Xij
.	.	4B/	.	.	.	.	.
*	*	*custos:B	*	*	*	*	*
.	.	4A/	.	.	.	.	.
!	!	!LO:LB:g=original	!	!	!	!	!
*	*	*xywh-#244:7789,3714,6326,1378	*	*	*	*	*
.	.	2B\	pa-	.	.	1g	.
.	.	2c\	-tres	.	.	.	.
=164	=164	=164	=164	=164	=164	=164	=164
0ryy	.	2A/	.	0ryy	.	2r	.
.	.	2B/	.	.	.	2d/	ad
.	.	2.c\	no-	.	.	4e/	pa-
.	.	.	.	.	.	4f/	.
.	.	.	.	.	.	4g/	-tres
.	.	4B/	.	.	.	4e/	.
=165	=165	=165	=165	=165	=165	=165	=165
0ryy	.	2A/	.	0ryy	.	2f/	.
.	.	2G/	-ſtros	.	.	2.g/	.
.	.	2.c\	.	.	.	.	.
.	.	.	.	.	.	4e/	.
.	.	.	.	.	.	2a\	.
.	.	4d\	.	.	.	.	.
=166	=166	=166	=166	=166	=166	=166	=166
0ryy	.	4e\	.	0ryy	.	2g\	.
.	.	4c\	.	.	.	.	.
.	.	2.f\	.	.	.	2.a\	no-
.	.	4e\	.	.	.	4g/	.
.	.	4d\	.	.	.	4f/	.
.	.	4c\	.	.	.	4e/	.
=167	=167	=167	=167	=167	=167	=167	=167
0ryy	.	2d\	.	0ryy	.	2f/	.
.	.	2B/	.	.	.	2.g/	.
.	.	2.c\	.	.	.	.	.
.	.	.	.	.	.	4f/	.
.	.	.	.	.	.	4e/	.
.	.	4d\	.	.	.	4d/	.
=168	=168	=168	=168	=168	=168	=168	=168
0ryy	.	2e\	.	0ryy	.	2c/	.
.	.	2f\	.	.	.	1cc	.
.	.	1d	.	.	.	.	.
.	.	.	.	.	.	2b\	-ſtros
=169	=169	=169	=169	=169	=169	=169	=169
0ryy	.	00c	.	0ryy	.	1cc	.
*	*	*	*	*	*	*custos:cc	*
.	.	.	.	.	.	1r	.
!	!	!	!	!	!	!LO:LB:g=original	!
=170	=170	=170	=170	=170	=170	=170	=170
*	*	*	*	*	*	*xywh-#39:7796,2281,6380,819	*
0ryy	.	.	.	0ryy	.	1.cc	A-
.	.	.	.	.	.	2cc\	-bra-
=171	=171	=171	=171	=171	=171	=171	=171
0ryy	.	1r	.	0ryy	.	2.cc\	-hae
.	.	.	.	.	.	4b\	.
.	.	1.c	A-	.	.	4a/	.
.	.	.	.	.	.	4g/	.
.	.	.	.	.	.	1a	.
=172	=172	=172	=172	=172	=172	=172	=172
0ryy	.	.	.	0ryy	.	.	.
.	.	2c\	-bra-	.	.	4g/	.
.	.	.	.	.	.	4f/	.
.	.	2.c\	-ham	.	.	1e	.
.	.	4B/	.	.	.	.	.
=173	=173	=173	=173	=173	=173	=173	=173
0ryy	.	4A/	.	0ryy	.	2r	.
.	.	4G/	.	.	.	.	.
.	.	1A	.	.	.	2e/	et
.	.	.	.	.	.	2f/	ſe-
.	.	4G/	.	.	.	2f/	-mi-
*	*	*custos:E	*	*	*	*	*
.	.	4F/	.	.	.	.	.
!	!	!LO:LB:g=original	!	!	!	!	!
=174	=174	=174	=174	=174	=174	=174	=174
*	*	*xywh-#245:1763,574,5915,959	*	*	*	*	*
0ryy	.	0E	.	0ryy	.	2g/	-ni
.	.	.	.	.	.	2g/	e-
.	.	.	.	.	.	2e/	-ius
.	.	.	.	.	.	2.g/	.
=175	=175	=175	=175	=175	=175	=175	=175
0ryy	.	2r	.	0ryy	.	.	.
.	.	.	.	.	.	4f/	in
.	.	2G/	et	.	.	4e/	.
.	.	.	.	.	.	4d/	.
.	.	2A/	ſe-	.	.	2c/	.
.	.	2A/	-mi-	.	.	2e/	ſae-
=176	=176	=176	=176	=176	=176	=176	=176
0ryy	.	2B/	-ni	0ryy	.	2d/	-cu-
.	.	2B/	e-	.	.	2.g/	-la
.	.	2G/	-ius	.	.	.	.
.	.	.	.	.	.	4e/	.
.	.	2.c/	.	.	.	2.a/	.
=177	=177	=177	=177	=177	=177	=177	=177
0ryy	.	.	.	0ryy	.	.	.
.	.	4B/	.	.	.	4g/	.
.	.	4A/	.	.	.	4f/	.
.	.	4G/	.	.	.	4e/	.
.	.	2A/	.	.	.	4f/	.
.	.	.	.	.	.	4e/	.
.	.	2G/	.	.	.	2.g/	.
=178	=178	=178	=178	=178	=178	=178	=178
0ryy	.	2.E/	in	0ryy	.	.	.
.	.	.	.	.	.	4f/	.
.	.	.	.	.	.	4e/	.
.	.	4F/	.	.	.	4d/	.
.	.	2G/	.	.	.	4e/	.
*	*	*	*	*	*	*custos:f	*
.	.	.	.	.	.	4d/	.
!	!	!	!	!	!	!LO:LB:g=original	!
*	*	*	*	*	*	*xywh-#39:7796,3035,6451,855	*
.	.	2.A/	ſae-	.	.	2.f/	.
=179	=179	=179	=179	=179	=179	=179	=179
0ryy	.	.	.	0ryy	.	.	.
.	.	4G/	.	.	.	4e/	.
.	.	4F/	.	.	.	1e	.
.	.	4E/	-cu-	.	.	.	.
.	.	1F	-la	.	.	.	.
.	.	.	.	.	.	2d/	.
=180	=180	=180	=180	=180	=180	=180	=180
0ryy	.	0E	.	0ryy	.	1e	.
.	.	.	.	.	.	2r	.
.	.	.	.	.	.	2g/	et
=181	=181	=181	=181	=181	=181	=181	=181
0ryy	.	2r	.	0ryy	.	2.g/	ſe-
.	.	2c\	et	.	.	.	.
.	.	.	.	.	.	4g/	-mi-
.	.	2.c\	ſe-	.	.	2g/	-ni
.	.	.	.	.	.	2g/	e-
.	.	4c\	-mi-	.	.	.	.
=182	=182	=182	=182	=182	=182	=182	=182
0ryy	.	2c\	-ni	0ryy	.	4e/	-ius
.	.	.	.	.	.	4f/	.
.	.	2c\	e-	.	.	4g/	.
.	.	.	.	.	.	4e/	.
.	.	2A/	-ius	.	.	2f/	.
.	.	2c/	.	.	.	2e/	in
=183	=183	=183	=183	=183	=183	=183	=183
*	*	*custos:d	*	*	*	*	*
0ryy	.	2B\	in	0ryy	.	4d/	ſae-
!	!	!LO:LB:g=original	!	!	!	!	!
.	.	.	.	.	.	4e/	-cu-
*	*	*xywh-#245:1786,1373,5938,959	*	*	*	*	*
.	.	2.d\	ſae-	.	.	4f/	-la
.	.	.	.	.	.	4g/	.
.	.	.	.	.	.	4a\	.
.	.	4c\	.	.	.	4b\	.
.	.	4A/	.	.	.	2.cc\	.
.	.	4B/	.	.	.	.	.
=184	=184	=184	=184	=184	=184	=184	=184
0ryy	.	2c\	.	0ryy	.	.	.
.	.	.	.	.	.	4b\	.
.	.	2d\	.	.	.	1a	.
.	.	1B	.	.	.	.	.
.	.	.	.	.	.	2g/	.
=185	=185	=185	=185	=185	=185	=185	=185
0ryy	.	2.A/	.	0ryy	.	2f/	.
.	.	.	.	.	.	2.e/	.
.	.	4B/	.	.	.	.	.
.	.	4c\	.	.	.	.	.
.	.	4d\	.	.	.	4f/	.
.	.	2e\	.	.	.	4g/	.
.	.	.	.	.	.	4a/	.
=186	=186	=186	=186	=186	=186	=186	=186
0ryy	.	2d\	.	0ryy	.	2b\	.
.	.	1f	.	.	.	2a\	.
.	.	.	.	.	.	2.cc\	In
.	.	2e\	.	.	.	.	.
.	.	.	.	.	.	8b\	.
.	.	.	.	.	.	8cc\	.
=187	=187	=187	=187	=187	=187	=187	=187
0ryy	.	4d\	.	0ryy	.	2b\	ſae-
.	.	4c\	-cu-	.	.	.	.
.	.	4B/	.	.	.	1a	.
.	.	4A/	-la	.	.	.	.
.	.	1B	.	.	.	.	.
.	.	.	.	.	.	2g/	-cu-
=188	=188	=188	=188	=188	=188	=188	=188
0ryy	.	0A	.	0ryy	.	0a	-la
!	!	!	!	!	!	!LO:LB:g=original	!
=189||	=189||	=189||	=189||	=189||	=189||	=189||	=189||
*	*	*	*	*	*	*xywh-#39:7778,3628,6434,1615	*
0r	.	0r	.	2.G/	Si-	000g	Si-
.	.	.	.	4A/	-cut	.	.
.	.	.	.	4B/	.	.	.
.	.	.	.	4G/	.	.	.
.	.	.	.	2.c/	e-	.	.
=190	=190	=190	=190	=190	=190	=190	=190
0r	.	0r	.	.	.	.	.
.	.	.	.	8B/	-rat	.	.
.	.	.	.	8A/	.	.	.
.	.	.	.	2B/	.	.	.
.	.	.	.	2c/	.	.	.
.	.	.	.	2G/	.	.	.
=191	=191	=191	=191	=191	=191	=191	=191
0r	.	2.G/	Si-	2.d/	.	.	.
.	.	4A/	-cut	4c/	.	.	.
.	.	4B/	.	4d/	.	.	.
.	.	4G/	.	4B/	.	.	.
.	.	2.c/	e-	1e	.	.	.
=192	=192	=192	=192	=192	=192	=192	=192
1G	Si-	.	.	.	.	.	.
.	.	8B/	-rat	.	.	.	.
.	.	8A/	.	.	.	.	.
*	*	*custos:c	*	*custos:e	*	*	*
.	.	2B/	.	2d/	.	.	.
!	!	!LO:LB:g=original	!	!	!	!	!
!	!	!	!	!LO:LB:g=original	!	!	!
*	*	*xywh-#245:1798,2097,5869,1017	*	*xywh-#141:7836,2238,6160,945	*	*	*
2C/	-cut	2c\	.	2e\	.	.	.
2E/	.	2G/	.	2c/	.	.	.
=193	=193	=193	=193	=193	=193	=193	=193
2.D/	e-	1d	.	1.f	.	1.a	-cut
4E/	-rat	.	.	.	.	.	.
4F/	.	2c\	.	.	.	.	.
4D/	.	.	.	.	.	.	.
!	!	!	!	!	!	!LO:TX:t=P:problem=kreska pseudotaktowa	!
1G	.	2B\	.	4e\	.	2b\	e-
.	.	.	.	4d\	.	.	.
=194	=194	=194	=194	=194	=194	=194	=194
.	.	1A	.	2e\	.	1cc	-rat
*custos:G	*	*	*	*	*	*	*
2F/	.	.	.	2f\	.	.	.
!LO:LB:g=original	!	!	!	!	!	!	!
*xywh-#343:7745,2206,6345,1018	*	*	*	*	*	*	*
2G\	.	1G	.	2d/	.	2b\	.
*	*	*	*	*	*	*lig	*
2B\	.	.	.	1g	.	1dd\	.
=195	=195	=195	=195	=195	=195	=195	=195
*lig	*	*	*	*	*	*	*
1A	.	1c	.	.	.	.	.
.	.	.	.	2f\	.	1cc	.
1G	.	1.d	.	2g\	.	.	.
*	*	*col	*	*	*	*	*
*	*	*	*	*	*	*Xlig	*
*	*	*	*	*	*	*lig	*
.	.	.	.	2g\	si-	1b	.
=196	=196	=196	=196	=196	=196	=196	=196
0r	.	.	.	1fn	-cut	.	.
.	.	2d\	.	.	.	1a	.
*	*	*Xcol	*	*	*	*Xlig	*
.	.	1c	.	1e	e-	.	.
.	.	.	.	.	.	2.g/	.
=197	=197	=197	=197	=197	=197	=197	=197
1G	Si-	1B	.	1.d	-rat	.	.
.	.	.	.	.	.	4f/	.
.	.	.	.	.	.	4d/	.
.	.	.	.	.	.	4e/	.
2F/	-cut	2A/	.	.	.	4f/	.
.	.	.	.	.	.	4d/	.
2E/	.	2G/	.	2c/	.	2.g/	.
=198	=198	=198	=198	=198	=198	=198	=198
1D	e-	1.A	.	1d	.	.	.
.	.	.	.	.	.	4f/	.
.	.	.	.	.	.	2f/	.
1F	-rat	.	.	2r	.	1a	.
.	.	2.c\	.	2A/	.	.	.
=199	=199	=199	=199	=199	=199	=199	=199
2.C/	.	.	.	2.c/	.	2r	.
.	.	4B\	.	.	.	.	.
.	.	2G/	.	.	.	2e/	ſi-
4D/	.	.	.	4B/	.	.	.
4E/	.	1r	.	2G/	.	2.g/	-cut
4F/	.	.	.	.	.	.	.
1G	.	.	.	2B/	.	.	.
.	.	.	.	.	.	4f/	.
=200	=200	=200	=200	=200	=200	=200	=200
.	.	2r	.	1A	.	2d/	.
2F/	.	2c\	ſi-	.	.	2f/	e-
*	*	*	*	*	*	*lig	*
2G/	.	2B\	-cut	2G/	.	1e	-rat
2C/	.	2c\	.	1g	.	.	.
=201	=201	=201	=201	=201	=201	=201	=201
1D	.	1A	e-	.	.	1d	.
.	.	.	.	2f\	.	.	.
2E/	.	2G/	-rat	1e	.	0g	.
2C/	.	1c	.	.	.	.	.
*	*	*	*	*	*	*Xlig	*
=202	=202	=202	=202	=202	=202	=202	=202
0G	.	.	.	0d	.	.	.
.	.	4B/	.	.	.	.	.
.	.	4A/	.	.	.	.	.
.	.	1B	.	.	.	1r	.
=203	=203	=203	=203	=203	=203	=203	=203
1r	.	1r	.	1r	.	1g	in
1C	in	1c	in	1e	in	2g/	prin-
.	.	.	.	.	.	1g	-ci-
=204	=204	=204	=204	=204	=204	=204	=204
2C/	prin-	2c\	prin-	2f\	prin-	.	.
*	*	*custos:d	*	*	*	*	*
1G	-ci-	2B\	-ci-	2d\	-ci-	2g/	-pi-
*	*	*	*	*custos:e	*	*	*
!	!	!LO:LB:g=original	!	!	!	!	!
*	*	*xywh-#245:1809,2988,5909,954	*	*	*	*	*
.	.	2d\	-pi-	2B/	-pi-	1g	-o
!	!	!	!	!LO:LB:g=original	!	!	!
*	*	*	*	*xywh-#141:7853,2958,6177,962	*	*	*
2C/	-pi-	1c	-o	1e	-o	.	.
=205	=205	=205	=205	=205	=205	=205	=205
*	*	*	*	*	*	*custos:cc	*
1C	-o	.	.	.	.	2r	.
!	!	!	!	!	!	!LO:LB:g=original	!
*	*	*	*	*	*	*xywh-#40:1426,594,6255,1052	*
.	.	4B/	.	4d\	.	1cc	et
.	.	4A/	.	4c\	.	.	.
*	*	*lig	*	*	*	*	*
1r	.	1G	.	1d	.	.	.
.	.	.	.	.	.	2b\	nunc
=206	=206	=206	=206	=206	=206	=206	=206
*	*	*	*	*lig	*	*	*
2r	.	1A	.	1c	.	1cc	.
1c	et	.	.	.	.	.	.
*	*	*Xlig	*	*	*	*	*
.	.	1G	.	1g	.	1dd	.
2B\	nu(n)c	.	.	.	.	.	.
*	*	*	*	*Xlig	*	*	*
=207	=207	=207	=207	=207	=207	=207	=207
2.A\	et	2r	.	2r	.	2.cc\	et
.	.	1c	et	2e\	et	.	.
*custos:F	*	*	*	*	*	*	*
4G/	.	.	.	.	.	4b\	.
!LO:LB:g=original	!	!	!	!	!	!	!
*xywh-#343:7738,3106,5998,942	*	*	*	*	*	*	*
2F/	.	.	.	2f\	.	2a/	ſem-
*	*	*	*	*	*	*	*
*	*	*	*	*	*	*lig	*
2G/	ſem-	2B/	nu(n)c	2d\	nunc	1g	-per
=208	=208	=208	=208	=208	=208	=208	=208
2E/	.	1c	et	2e\	et	.	.
2C/	.	.	.	2.g\	ſem-	1cc	.
1G	.	1d	ſem-	.	.	.	.
.	.	.	.	4f\	.	.	.
*	*	*	*	*	*	*Xlig	*
.	.	.	.	2d/	.	2b\	.
=209	=209	=209	=209	=209	=209	=209	=209
*M3/1	*	*M3/1	*	*M3/1	*	*M3/1	*
0C	-per	0c	-p(er)	0e	-per	0cc	.
1r	.	1r	.	1r	.	1r	.
=210	=210	=210	=210	=210	=210	=210	=210
*col	*	*col	*	*col	*	*col	*
0C	et	0c	Et	0e	et	0g	et
0F	in	0c	in	0f	in	0a	in
=211	=211	=211	=211	=211	=211	=211	=211
.	.	.	.	.	.	.	.
1C	ſae-	1e	ſae-	1g	ſae-	1cc	ſae-
1C	-cu-	1e	-cu-	1g	-cu-	1cc	-cu-
*Xcol	*	*Xcol	*	*Xcol	*	*Xcol	*
=212	=212	=212	=212	=212	=212	=212	=212
0G	-la	0d	-la	0g	-la	0b	-la
1r	.	1c	ſae-	1r	.	1r	.
=213	=213	=213	=213	=213	=213	=213	=213
0.r	.	1c	-cu-	1g	ſae-	0.r	.
.	.	1B	-lo-	1g	-cu-	.	.
.	.	1.A	-ru(m)	1f	-lo-	.	.
=214	=214	=214	=214	=214	=214	=214	=214
1c	ſae-	.	.	1.e	-ru(m)	0.r	.
.	.	2G/	A-	.	.	.	.
1c	-cu-	1A	-m(en)	.	.	.	.
.	.	.	.	2f\	.	.	.
1B	-lo-	1E	.	1g	.	.	.
=215	=215	=215	=215	=215	=215	=215	=215
1.A	-ru(m)	0.r	.	2c/	.	1cc	ſae-
.	.	.	.	2d/	.	.	.
.	.	.	.	2e\	A-	1cc	-cu-
4G/	.	.	.	2f\	-men	.	.
4F/	.	.	.	.	.	.	.
1G	.	.	.	2d\	.	1b	-lo-
*	*	*	*	*custos:f	*	*	*
.	.	.	.	2e\	.	.	.
!	!	!	!	!LO:LB:g=original	!	!	!
=216	=216	=216	=216	=216	=216	=216	=216
*	*	*	*	*xywh-#141:7819,3806,6287,1406	*	*	*
2F/	A-	1c	ſae-	1f	.	1.a	-ru(m)
2G/	.	.	.	.	.	.	.
1A	-men	1c	-cu-	0e	.	.	.
.	.	.	.	.	.	4g/	.
.	.	.	.	.	.	4f/	.
*	*	*custos:A	*	*	*	*	*
1E	.	1B	-lo-	.	.	1g	.
!	!	!LO:LB:g=original	!	!	!	!	!
=217	=217	=217	=217	=217	=217	=217	=217
*	*	*xywh-#245:1809,3868,5869,994	*	*	*	*	*
2F/	.	1.A	-ru(m)	1d	.	1f	.
2D/	.	.	.	.	.	.	.
1.A	.	.	.	1.c	.	1.e	A-
.	.	2B\	.	.	.	.	.
.	.	2c\	.	.	.	.	.
2G/	ſae-	2d\	.	2B/	.	2f/	-men
=218	=218	=218	=218	=218	=218	=218	=218
2E/	-cu-	1e	.	1G	.	2g/	.
2F/	-lo-	.	.	.	.	2a/	.
1G	-ru(m)	0d	.	1r	.	2b/	.
.	.	.	.	.	.	2g/	.
*custos:A	*	*	*	*	*	*	*
1F	.	.	.	1f	ſae-	2a/	.
*	*	*	*	*	*	*custos:ccc	*
!LO:LB:g=original	!	!	!	!	!	!	!
.	.	.	.	.	.	2b/	.
!	!	!	!	!	!	!LO:LB:g=original	!
=219	=219	=219	=219	=219	=219	=219	=219
*xywh-#343:7731,3944,6220,1212	*	*	*	*	*	*xywh-#40:1391,1453,6089,914	*
*	*	*	*	*	*	*lig	*
1A	.	1c	A-	1e	-cu-	1cc	A-
1.G	A-	1.d	.	1.g	-lo-	1.b	.
*	*	*	*	*	*	*Xlig	*
2A\	.	2c\	.	2f\	-ru(m)	2a/	.
=220	=220	=220	=220	=220	=220	=220	=220
1F	.	1A	-men	1d	A-	0a	.
0E	-men.	0B	.	0e	-m(en)	.	.
.	.	.	.	.	.	1g	-men
=221	=221	=221	=221	=221	=221	=221	=221
0AA	.	0A	.	0e	.	0a	.
1ryy	.	1ryy	.	1ryy	.	1ryy	.
==	==	==	==	==	==	==	==
*-	*-	*-	*-	*-	*-	*-	*-
!!!system-decoration: [(s1,s2,s3,s4)]
!!!ENC: Andrzej Gręziak
!!!END: 2022-01-07
!!!ENC: Jan Barakat
!!!END: 2022-01-08
!!!ENC-iiif: Natalia Wrzos
!!!END-iiif: 2022-09-01
